assets/img/draco-laptop-oscuro.svg

<svg width="453" height="238" viewBox="0 0 453 238" fill="none" xmlns="http://www.w3.org/2000/svg">
<path d="M226.5 238C351.592 238 453 217.553 453 192.33C453 167.107 351.592 146.66 226.5 146.66C101.408 146.66 0 167.107 0 192.33C0 217.553 101.408 238 226.5 238Z" fill="url(#paint0_radial)"/>
<path fill-rule="evenodd" clip-rule="evenodd" d="M217.939 183.06L218.076 186.541L158.427 188.073L135.2 131.96L138.361 130.568L160.626 184.453L217.939 183.06Z" fill="black" stroke="black" stroke-width="2.36229"/>
<path fill-rule="evenodd" clip-rule="evenodd" d="M134.514 129.036L138.362 130.568L160.627 184.453L161.177 193.642L134.514 129.036Z" fill="#D2D3D5" stroke="#373435" stroke-width="2.36229" stroke-linejoin="bevel"/>
<path fill-rule="evenodd" clip-rule="evenodd" d="M161.178 193.642L160.628 184.453L217.94 183.06L229.76 191.832L161.178 193.642Z" fill="#DEDEDC" stroke="#373435" stroke-width="2.36229" stroke-linejoin="bevel"/>
<path fill-rule="evenodd" clip-rule="evenodd" d="M229.76 191.832L229.897 196.009L158.429 197.82L130.666 130.568L134.514 129.036L161.178 193.642L229.76 191.832Z" fill="#373435" stroke="#373435" stroke-width="2.36229" stroke-linejoin="bevel"/>
<path fill-rule="evenodd" clip-rule="evenodd" d="M162.689 185.567L203.372 184.453L210.518 191.554L162.689 192.668V185.567Z" fill="#96989A" stroke="#373435" stroke-width="2.36229"/>
<path fill-rule="evenodd" clip-rule="evenodd" d="M245.702 176.795L217.801 187.098C215.328 188.073 212.716 188.212 210.792 187.794C208.73 187.516 207.219 186.541 206.669 185.149C206.119 183.617 205.294 181.389 204.607 179.719C203.783 176.934 229.484 168.301 241.304 164.681L245.702 176.795Z" fill="#1B1B1B"/>
<path fill-rule="evenodd" clip-rule="evenodd" d="M245.427 196.288C243.916 196.288 242.404 196.288 240.892 196.288C239.518 196.288 232.233 196.149 231.546 195.035C230.859 193.921 229.072 190.161 229.21 188.491C229.622 185.567 230.859 184.313 232.783 182.364C233.745 181.25 237.593 180.693 238.281 174.706C238.83 171.086 238.418 165.099 239.243 161.757C239.38 154.795 246.39 149.504 253.399 149.504H259.034H264.394L279.375 164.542C290.233 175.402 290.92 186.402 290.92 190.022C290.92 191.693 290.782 193.225 290.095 194.478C289.408 195.592 288.171 196.288 286.934 196.288H284.598H282.399H279.238H277.863C258.484 196.288 260.821 196.288 245.427 196.288Z" fill="#1B1B1B"/>
<path fill-rule="evenodd" clip-rule="evenodd" d="M216.427 75.8736C214.31 76.6839 212.193 77.5217 210.076 78.3783C210.065 78.1364 210.051 77.8968 210.037 77.6572C210.002 77.0655 209.968 76.4737 209.968 75.8472C209.968 74.6805 209.935 73.4801 209.901 72.2625C209.866 71.0096 209.831 69.7386 209.831 68.4676C209.72 64.2222 206.867 64.4589 204.608 64.6463C204.051 64.6925 203.531 64.7356 203.096 64.7081C201.87 64.7081 202.066 57.9504 202.122 55.9964C202.129 55.7598 202.134 55.5936 202.134 55.5184C202.134 52.5649 199.834 53.3652 199.3 53.5511C199.28 53.558 199.262 53.5641 199.248 53.5691C198.641 53.774 198.828 56.4592 199.014 59.1251C199.207 61.8928 199.398 64.6398 198.698 64.5689C197.461 64.5689 194.712 64.5689 192.513 64.4296C190.864 64.4296 190.452 59.8348 190.314 53.9868C190.279 52.4649 190.262 50.8441 190.245 49.1952C190.193 44.3571 190.139 39.2774 189.627 35.7466C188.39 25.3038 183.305 33.1011 183.442 38.5314C183.564 43.2095 184.115 48.8671 184.621 54.0609C184.687 54.7414 184.753 55.414 184.817 56.0754C185.366 61.6449 186.054 66.379 186.466 68.4676C187.016 71.9485 189.902 72.3662 193.75 72.0877C195.222 71.9883 196.835 71.7646 198.475 71.537C201.428 71.1274 204.47 70.7053 206.944 70.9738C207.887 70.9738 208.038 75.1171 208.173 78.8206L208.181 79.0496C208.231 79.0622 208.282 79.0748 208.334 79.0874C207.687 79.3519 207.041 79.6179 206.394 79.8851C199.66 82.9484 196.086 89.2141 196.911 96.7329C199.522 118.593 205.157 140.036 213.954 161.061C216.84 168.023 223.162 171.643 230.446 170.668C252.986 168.023 274.152 162.175 293.943 153.403C300.815 150.479 304.526 144.213 303.564 136.694C300.403 112.885 294.493 91.5811 286.522 72.3663C283.635 65.4044 277.313 61.7842 270.029 62.7589C269.447 62.8269 268.864 62.8968 268.282 62.9687C269.213 58.7199 270.256 53.5937 271.266 47.9996C273.465 35.7466 275.664 20.9874 275.939 9.29142C276.351 -2.68304 255.598 -5.4678 252.024 15.4179C251.04 21.9009 251.113 30.2415 251.184 38.2391C251.211 41.4063 251.239 44.5197 251.2 47.4426C251.2 57.3285 250.375 65.1258 245.977 65.1258C242.687 65.1258 239.298 65.1757 236.577 65.2158C234.751 65.2426 233.226 65.2651 232.233 65.2651C231.049 65.2651 231.242 61.5105 231.433 57.7704C231.62 54.1303 231.806 50.504 230.721 50.3666C230.034 50.2274 225.773 49.8097 226.048 53.7083C226.048 53.8479 226.068 54.1818 226.096 54.6514C226.262 57.4604 226.715 65.1258 224.949 65.1258C224.361 65.1258 223.674 65.0521 222.949 64.9743C219.947 64.652 216.29 64.2596 216.29 68.746C216.414 71.2455 216.426 73.5207 216.427 75.8736ZM218.783 74.9836C220.827 74.2221 222.871 73.4891 224.914 72.7925C222.992 72.3701 221.281 72.0619 219.864 71.9485C219.221 71.9485 218.912 73.1877 218.783 74.9836Z" fill="url(#paint1_linear)"/>
<path d="M216.564 145.275C218.93 144.633 219.465 138.884 217.759 132.434C216.053 125.985 212.753 121.277 210.387 121.92C208.021 122.562 207.485 128.311 209.191 134.76C210.897 141.21 214.198 145.917 216.564 145.275Z" fill="#FEFEFE"/>
<path d="M229.829 141.237C232.932 138.419 233.375 130.063 230.819 122.573C228.262 115.083 223.674 111.296 220.572 114.115C217.469 116.933 217.026 125.289 219.582 132.778C222.138 140.268 226.726 144.055 229.829 141.237Z" fill="#FEFEFE"/>
<defs>
<radialGradient id="paint0_radial" cx="0" cy="0" r="1" gradientUnits="userSpaceOnUse" gradientTransform="translate(226.5 192.33) rotate(90) scale(45.67 226.5)">
<stop stop-color="#363636"/>
<stop offset="1" stop-color="#CECECE" stop-opacity="0.03"/>
</radialGradient>
<linearGradient id="paint1_linear" x1="243.577" y1="0" x2="243.577" y2="170.825" gradientUnits="userSpaceOnUse">
<stop stop-color="#848484"/>
<stop offset="1" stop-color="#0A0A0A"/>
</linearGradient>
</defs>
</svg>

<svg xmlns="http://www.w3.org/2000/svg" width="453" height="238" fill="none" xmlns:v="https://vecta.io/nano"><path d="M226.5 238c125.092 0 226.5-20.447 226.5-45.67s-101.408-45.67-226.5-45.67S0 167.107 0 192.33 101.408 238 226.5 238z" fill="url(#A)"/><g fill-rule="evenodd"><g stroke-width="2.362"><path d="M217.94 183.06l.137 3.48-59.65 1.532L135.2 131.96l3.16-1.392 22.265 53.885 57.313-1.393z" fill="#000" stroke="#000"/><g stroke="#373435"><g stroke-linejoin="bevel"><path d="M134.514 129.036l3.848 1.532 22.265 53.885.55 9.19-26.663-64.606z" fill="#d2d3d5"/><path d="M161.178 193.642l-.55-9.19 57.312-1.393 11.82 8.772-68.582 1.8z" fill="#dededc"/><path d="M229.76 191.832l.137 4.177-71.468 1.81-27.763-67.252 3.848-1.532 26.664 64.606 68.582-1.8z" fill="#373435"/></g><path d="M162.69 185.567l40.683-1.114 7.146 7.1-47.83 1.114v-7.1z" fill="#96989a"/></g></g><g fill="#1b1b1b"><path d="M245.702 176.795l-27.9 10.303c-2.473.975-5.085 1.114-7.01.696-2.062-.278-3.573-1.253-4.123-2.645l-2.062-5.43c-.824-2.785 24.877-11.418 36.697-15.038l4.398 12.114z"/><path d="M245.427 196.288h-4.535c-1.374 0-8.66-.14-9.346-1.253s-2.474-4.874-2.336-6.544c.412-2.924 1.65-4.178 3.573-6.127.962-1.114 4.8-1.67 5.498-7.658.55-3.62.137-9.607.962-12.95.137-6.962 7.147-12.253 14.156-12.253h10.995l14.98 15.038c10.858 10.86 11.545 21.86 11.545 25.48 0 1.67-.138 3.203-.825 4.456-.687 1.114-1.924 1.8-3.16 1.8h-41.507z"/></g><path d="M216.427 75.874l-6.35 2.505-.04-.72-.07-1.8-.137-7.38c-.11-4.245-2.964-4.01-5.223-3.82l-1.512.062c-1.226 0-1.03-6.758-.974-8.712l.012-.478c0-2.953-2.3-2.153-2.834-1.967l-.052.018c-.607.205-.42 2.9-.234 5.556.193 2.768.384 5.515-.316 5.444-1.237 0-3.986 0-6.185-.14-1.65 0-2.06-4.595-2.2-10.443l-.07-4.792c-.052-4.838-.106-9.918-.618-13.45-1.237-10.443-6.322-2.645-6.185 2.785.122 4.678.673 10.336 1.18 15.53l.196 2.015c.55 5.57 1.237 10.304 1.65 12.392.55 3.48 3.436 3.9 7.284 3.62 1.472-.1 3.085-.323 4.725-.55 2.953-.4 5.995-.832 8.47-.563.943 0 1.094 4.143 1.23 7.847l.008.23.153.038-1.94.798c-6.734 3.063-10.308 9.33-9.483 16.848 2.61 21.86 8.246 43.303 17.043 64.328 2.886 6.962 9.208 10.582 16.492 9.607 22.54-2.645 43.706-8.493 63.497-17.265 6.872-2.924 10.583-9.2 9.62-16.71-3.16-23.81-9.07-45.113-17.042-64.328-2.887-6.962-9.21-10.582-16.493-9.607l-1.747.2c.93-4.25 1.974-9.375 2.984-14.97 2.2-12.253 4.398-27.012 4.673-38.708.412-11.974-20.34-14.76-23.915 6.126-.984 6.483-.91 14.824-.84 22.82l.016 9.203c0 9.886-.825 17.683-5.223 17.683l-9.4.1-4.344.05c-1.184 0-.99-3.755-.8-7.495.187-3.64.373-7.266-.712-7.404-.687-.14-4.948-.557-4.673 3.342 0 .14.02.474.048.943.166 2.81.62 10.474-1.147 10.474-.588 0-1.275-.074-2-.15-3.002-.322-6.66-.715-6.66 3.772.124 2.5.136 4.775.137 7.128zm2.356-.9l6.13-2.19c-1.922-.422-3.633-.73-5.05-.844-.643 0-.952 1.24-1.08 3.035z" fill="url(#B)"/></g><path d="M216.564 145.275c2.366-.642 2.9-6.4 1.195-12.84s-5.006-11.157-7.372-10.514-2.902 6.4-1.196 12.84 5.007 11.157 7.373 10.515zm13.266-4.038c3.103-2.818 3.546-11.174 1-18.664s-7.145-11.277-10.247-8.458-3.546 11.174-1 18.663 7.144 11.277 10.247 8.46z" fill="#fefefe"/><defs><radialGradient id="A" cx="0" cy="0" r="1" gradientUnits="userSpaceOnUse" gradientTransform="translate(226.5 192.33) rotate(90) scale(45.67 226.5)"><stop stop-color="#363636"/><stop offset="1" stop-color="#cecece" stop-opacity=".03"/></radialGradient><linearGradient id="B" x1="243.577" y1="0" x2="243.577" y2="170.825" gradientUnits="userSpaceOnUse"><stop stop-color="#848484"/><stop offset="1" stop-color="#0a0a0a"/></linearGradient></defs></svg>
